icons/editor/folder-download.svg

<svg width="32" height="32" viewBox="0 0 32 32" fill="none" xmlns="http://www.w3.org/2000/svg">
<path fill-rule="evenodd" clip-rule="evenodd" d="M3.99951 4.00012C2.89494 4.00012 1.9995 4.89556 1.99951 6.00014L1.99965 26C1.99966 27.1046 2.89508 28 3.99965 28H7V26H3.99965L3.99951 6.00012H10.5855L13.9997 9.41436C14.3748 9.78944 14.8835 10.0002 15.414 10.0002H27.9996V26H25V28H27.9996C29.1042 28 29.9996 27.1046 29.9996 26V10.0002C29.9996 8.89558 29.1042 8.00015 27.9996 8.00015L15.414 8.00015L11.9998 4.58591C11.6247 4.21084 11.116 4.00012 10.5855 4.00012H3.99951ZM14.9998 27.5858L11.7066 24.2926L10.2924 25.7069L15.2926 30.7071L15.9997 31.4142L16.7069 30.7071L21.7071 25.7069L20.2929 24.2926L16.9998 27.5858L16.9998 14.9998L14.9998 14.9998L14.9998 27.5858Z" fill="black"/>
</svg>

<svg width="32" height="32" viewBox="0 0 32 32" xmlns="http://www.w3.org/2000/svg">
    <path fill-rule="evenodd" d="M4 4a2 2 0 00-2 2v20a2 2 0 002 2h3v-2H4V6h6.585L14 9.414a2 2 0 001.414.586H28v16h-3v2h3a2 2 0 002-2V10a2 2 0 00-2-2H15.414L12 4.586A2 2 0 0010.585 4H4zm11 23.586l-3.293-3.293-1.415 1.414 5 5 .708.707.707-.707 5-5-1.414-1.414L17 27.586V15h-2v12.586z"/>
</svg>
